X:85
T:Green Hills of Tyrol, The 
C:Joe Buchanan's Scottish Tome - Page 047.1
I:047 1
Z:Carl Allison
R:Jig
L:1/8
M:3/4
K:A
AB c2 cA | cd e2 ef | cf e>c B2 | Bf e>c A2 |
A>B c2 cA | cd  e2 ef | cf e>c B2 |  BA c>B A2 :|
ce a2 a2 | gf fe e2 | e>f ed d2 | d>e dc c2 |
ce a2 a2 | gf fe e2 | ef e2 e>d | c>d e2 e2 |
ce a2 a2 | gf fe e2 | e>f ed d2 | de dc c2 |
ce a2 a2 | gf fe e2 | d>g e2 e>c | BA c>B A2 |]

